packages/tokens/icons/compassStrikethrough/size24Px.svg

<svg viewBox="0 0 24 24" fill="none" xmlns="http://www.w3.org/2000/svg" width="1em" height="1em"><circle cx="11.9999" cy="12" r="7.5" stroke="currentColor"/><path d="M11.9475 8.46921L13.2831 12.177L11.9475 15.5477L10.5992 12.177L11.9475 8.46921Z" stroke="currentColor"/><path fill-rule="evenodd" clip-rule="evenodd" d="M12.5 5C12.5 4.72386 12.2761 4.5 12 4.5C11.7239 4.5 11.5 4.72386 11.5 5V6.5C11.5 6.77614 11.7239 7 12 7C12.2761 7 12.5 6.77614 12.5 6.5V5ZM19.25 12.75C19.5261 12.75 19.75 12.5261 19.75 12.25C19.75 11.9739 19.5261 11.75 19.25 11.75L17.75 11.75C17.4739 11.75 17.25 11.9739 17.25 12.25C17.25 12.5261 17.4739 12.75 17.75 12.75H19.25ZM12 17.5C12.2761 17.5 12.5 17.7239 12.5 18V19.5C12.5 19.7761 12.2761 20 12 20C11.7239 20 11.5 19.7761 11.5 19.5L11.5 18C11.5 17.7239 11.7239 17.5 12 17.5ZM6.24988 12.75C6.52602 12.75 6.74988 12.5261 6.74988 12.25C6.74988 11.9739 6.52602 11.75 6.24988 11.75H4.74988C4.47374 11.75 4.24988 11.9739 4.24988 12.25C4.24988 12.5261 4.47374 12.75 4.74988 12.75H6.24988Z" fill="currentColor"/><path d="M20 4L3.70711 20.2929" stroke="currentColor" stroke-linecap="round"/></svg>

<svg xmlns="http://www.w3.org/2000/svg" fill="none" viewBox="0 0 24 24" width="1em" height="1em"><circle cx="12" cy="12" r="7.5" stroke="currentColor"/><path stroke="currentColor" d="m11.947 8.47 1.336 3.707-1.335 3.37-1.349-3.37 1.348-3.708Z"/><path fill="currentColor" fill-rule="evenodd" d="M12.5 5a.5.5 0 0 0-1 0v1.5a.5.5 0 0 0 1 0V5Zm6.75 7.75a.5.5 0 0 0 0-1h-1.5a.5.5 0 0 0 0 1h1.5ZM12 17.5a.5.5 0 0 1 .5.5v1.5a.5.5 0 0 1-1 0V18a.5.5 0 0 1 .5-.5Zm-5.75-4.75a.5.5 0 0 0 0-1h-1.5a.5.5 0 0 0 0 1h1.5Z" clip-rule="evenodd"/><path stroke="currentColor" stroke-linecap="round" d="M20 4 3.707 20.293"/></svg>
